;FLAVOR:Marlin
;TIME:522
;Filament used: 0.707765m
;Layer height: 0.15
;MINX:134.759
;MINY:151.904
;MINZ:0.15
;MAXX:195.241
;MAXY:180.636
;MAXZ:2.55
;TARGET_MACHINE.NAME:ELEGOO NEPTUNE 4 Plus
;Generated with Cura_SteamEngine 5.10.2
;ELEGOO NEPTUNE 4 PLUS
M220 S100 ;Set the feed speed to 100%
M221 S100 ;Set the flow rate to 100%
M104 S140 ;Start heating extruder
M190 S60 ;Wait for the bed to reach print temp
G90
G28 ;home
G1 Z10 F300
G1 X115 Y0 F6000
G1 Z0 F300
M109 S200 ;Wait for extruder to reach print temp
G92 E0 ;Reset Extruder
G1 X115 Y0 Z0.4 F300 ;Move to start position
G1 X215 E30 F400 ;Draw the first line
G1 Z0.6 F120.0 ;Move to side a little
G1 X210 F3000
G92 E0 ;Reset Extruder
M82 ;absolute extrusion mode
G92 E0
G92 E0
G1 F2700 E-0.5
;LAYER_COUNT:17
;LAYER:0
M107
M204 S500
G0 F7200 X137.082 Y154.218 Z0.15
;TYPE:SKIRT
G1 F2700 E0
G1 F3600 X138.737 Y152.941 E0.06844
G1 X140.737 Y152.115 E0.13929
G1 X142.775 Y151.904 E0.20637
G1 X187.813 Y151.94 E1.68093
G1 X189.288 Y152.131 E1.72963
G1 X191.256 Y152.943 E1.79933
G1 X192.927 Y154.227 E1.86833
G1 X194.204 Y155.882 E1.93677
G1 X195.03 Y157.882 E2.00761
G1 X195.241 Y159.926 E2.07489
G1 X195.205 Y173.209 E2.50978
G1 X195.014 Y174.683 E2.55844
G1 X194.202 Y176.651 E2.62815
G1 X192.918 Y178.322 E2.69714
G1 X191.263 Y179.599 E2.76558
G1 X189.263 Y180.425 E2.83643
G1 X187.225 Y180.636 E2.90351
G1 X142.187 Y180.6 E4.37807
G1 X140.712 Y180.409 E4.42677
G1 X138.744 Y179.597 E4.49647
G1 X137.073 Y178.313 E4.56547
G1 X135.796 Y176.658 E4.63391
G1 X134.97 Y174.658 E4.70475
G1 X134.759 Y172.614 E4.77203
G1 X134.795 Y159.331 E5.20692
G1 X134.986 Y157.857 E5.25559
G1 X135.798 Y155.889 E5.32529
G1 X137.082 Y154.218 E5.39428
G0 F7200 X137.455 Y154.594
G1 F3600 X139.005 Y153.398 E5.45838
G1 X140.866 Y152.629 E5.52431
G1 X142.775 Y152.429 E5.58715
G1 X187.746 Y152.461 E7.05952
G1 X189.154 Y152.643 E7.10601
G1 X190.991 Y153.401 E7.17107
G1 X192.551 Y154.6 E7.23549
G1 X193.747 Y156.15 E7.29959
G1 X194.516 Y158.011 E7.36551
G1 X194.716 Y159.925 E7.42852
G1 X194.684 Y173.142 E7.86125
G1 X194.502 Y174.549 E7.9077
G1 X193.744 Y176.386 E7.97276
G1 X192.545 Y177.946 E8.03718
G1 X190.995 Y179.142 E8.10128
G1 X189.134 Y179.911 E8.16721
G1 X187.225 Y180.111 E8.23005
G1 X142.254 Y180.079 E9.70242
G1 X140.846 Y179.897 E9.7489
G1 X139.009 Y179.139 E9.81397
G1 X137.449 Y177.94 E9.87839
G1 X136.253 Y176.39 E9.94248
G1 X135.484 Y174.529 E10.00841
G1 X135.284 Y172.615 E10.07142
G1 X135.316 Y159.398 E10.50415
G1 X135.498 Y157.991 E10.5506
G1 X136.256 Y156.154 E10.61566
G1 X137.455 Y154.594 E10.68008
G0 F7200 X137.828 Y154.97
G1 F3600 X139.272 Y153.856 E10.73979
G1 X140.997 Y153.143 E10.8009
G1 X142.775 Y152.954 E10.85944
G1 X187.679 Y152.982 E12.32962
G1 X189.02 Y153.155 E12.37389
G1 X190.726 Y153.859 E12.43431
G1 X192.175 Y154.973 E12.49415
G1 X193.289 Y156.417 E12.55387
G1 X194.002 Y158.142 E12.61498
G1 X194.191 Y159.924 E12.67365
G1 X194.163 Y173.075 E13.10422
G1 X193.99 Y174.415 E13.14845
G1 X193.286 Y176.121 E13.20888
G1 X192.172 Y177.57 E13.26872
G1 X190.728 Y178.684 E13.32843
G1 X189.003 Y179.397 E13.38954
G1 X187.225 Y179.586 E13.44808
G1 X142.321 Y179.558 E14.91826
G1 X140.98 Y179.385 E14.96253
G1 X139.274 Y178.681 E15.02295
G1 X137.825 Y177.567 E15.08279
G1 X136.711 Y176.123 E15.1425
G1 X135.998 Y174.398 E15.20362
G1 X135.809 Y172.616 E15.26229
G1 X135.837 Y159.465 E15.69286
G1 X136.01 Y158.125 E15.73709
G1 X136.714 Y156.419 E15.79752
G1 X137.828 Y154.97 E15.85736
G0 F7200 X138.201 Y155.346
G1 F3600 X139.539 Y154.314 E15.91268
G1 X141.128 Y153.657 E15.96898
G1 X142.775 Y153.479 E16.02322
G1 X187.612 Y153.503 E17.4912
G1 X188.886 Y153.667 E17.53325
G1 X190.461 Y154.317 E17.58904
G1 X191.799 Y155.346 E17.6443
G1 X192.831 Y156.684 E17.69963
G1 X193.488 Y158.273 E17.75592
G1 X193.666 Y159.923 E17.81026
G1 X193.642 Y173.008 E18.23867
G1 X193.478 Y174.281 E18.28069
G1 X192.828 Y175.856 E18.33647
G1 X191.799 Y177.194 E18.39174
G1 X190.461 Y178.226 E18.44706
G1 X188.872 Y178.883 E18.50336
G1 X187.225 Y179.061 E18.5576
G1 X142.388 Y179.037 E20.02558
G1 X141.114 Y178.873 E20.06763
G1 X139.539 Y178.223 E20.12342
G1 X138.201 Y177.194 E20.17868
G1 X137.169 Y175.856 E20.23401
G1 X136.512 Y174.267 E20.2903
G1 X136.334 Y172.617 E20.34464
G1 X136.358 Y159.532 E20.77305
G1 X136.522 Y158.259 E20.81507
G1 X137.172 Y156.684 E20.87085
G1 X138.201 Y155.346 E20.92612
G0 F7200 X138.575 Y155.72
G1 F3600 X139.804 Y154.773 E20.97692
G1 X141.259 Y154.171 E21.02847
G1 X142.775 Y154.004 E21.0784
G1 X187.612 Y154.028 E22.54639
G1 X188.75 Y154.178 E22.58397
G1 X190.196 Y154.775 E22.63519
G1 X191.425 Y155.72 E22.68595
G1 X192.372 Y156.949 E22.73674
G1 X192.974 Y158.404 E22.7883
G1 X193.141 Y159.922 E22.8383
G1 X193.117 Y173.007 E23.26671
G1 X192.967 Y174.145 E23.30429
G1 X192.37 Y175.591 E23.35551
G1 X191.425 Y176.82 E23.40626
G1 X190.196 Y177.767 E23.45706
G1 X188.741 Y178.369 E23.50862
G1 X187.225 Y178.536 E23.55855
G1 X142.388 Y178.512 E25.02653
G1 X141.25 Y178.362 E25.06411
G1 X139.804 Y177.765 E25.11533
G1 X138.575 Y176.82 E25.16609
G1 X137.628 Y175.591 E25.21689
G1 X137.026 Y174.136 E25.26844
G1 X136.859 Y172.618 E25.31844
G1 X136.883 Y159.533 E25.74685
G1 X137.033 Y158.395 E25.78443
G1 X137.63 Y156.949 E25.83565
G1 X138.575 Y155.72 E25.88641
G0 F7200 X138.949 Y156.094
G1 F3600 X140.069 Y155.232 E25.93268
G1 X141.39 Y154.685 E25.97949
G1 X142.775 Y154.529 E26.02513
G1 X187.544 Y154.549 E27.49088
G1 X188.616 Y154.69 E27.52628
G1 X189.931 Y155.233 E27.57286
G1 X191.051 Y156.094 E27.61912
G1 X191.913 Y157.214 E27.66539
G1 X192.46 Y158.535 E27.7122
G1 X192.616 Y159.921 E27.75786
G1 X192.596 Y172.939 E28.18408
G1 X192.455 Y174.011 E28.21948
G1 X191.912 Y175.326 E28.26606
G1 X191.051 Y176.446 E28.31231
G1 X189.931 Y177.308 E28.35858
G1 X188.61 Y177.855 E28.4054
G1 X187.225 Y178.011 E28.45103
G1 X142.456 Y177.991 E29.91679
G1 X141.384 Y177.85 E29.95219
G1 X140.069 Y177.307 E29.99877
G1 X138.949 Y176.446 E30.04502
G1 X138.087 Y175.326 E30.09129
G1 X137.54 Y174.005 E30.1381
G1 X137.384 Y172.619 E30.18377
G1 X137.404 Y159.601 E30.60998
G1 X137.545 Y158.529 E30.64538
G1 X138.088 Y157.214 E30.69196
G1 X138.949 Y156.094 E30.73821
G0 F7200 X139.323 Y156.468
G1 F3600 X140.334 Y155.691 E30.77996
G1 X141.521 Y155.199 E30.82203
G1 X142.775 Y155.054 E30.86336
G1 X187.476 Y155.07 E32.32689
G1 X188.482 Y155.202 E32.36011
G1 X189.666 Y155.691 E32.40205
G1 X190.677 Y156.468 E32.4438
G1 X191.454 Y157.479 E32.48554
G1 X191.946 Y158.666 E32.52761
G1 X192.091 Y159.92 E32.56894
G1 X192.075 Y172.871 E32.99297
G1 X191.943 Y173.877 E33.02619
G1 X191.454 Y175.061 E33.06813
G1 X190.677 Y176.072 E33.10987
G1 X189.666 Y176.849 E33.15162
G1 X188.479 Y177.341 E33.19369
G1 X187.225 Y177.486 E33.23502
G1 X142.524 Y177.47 E34.69855
G1 X141.518 Y177.338 E34.73177
G1 X140.334 Y176.849 E34.77371
G1 X139.323 Y176.072 E34.81546
G1 X138.546 Y175.061 E34.8572
G1 X138.054 Y173.874 E34.89927
G1 X137.909 Y172.62 E34.9406
G1 X137.925 Y159.669 E35.36462
G1 X138.057 Y158.663 E35.39784
G1 X138.546 Y157.479 E35.43978
G1 X139.323 Y156.468 E35.48153
G0 F7200 X139.697 Y156.842
G1 F3600 X140.598 Y156.15 E35.51873
G1 X141.655 Y155.712 E35.55619
G1 X142.775 Y155.579 E35.59311
G1 X187.408 Y155.591 E37.05442
G1 X188.347 Y155.714 E37.08542
G1 X189.402 Y156.15 E37.1228
G1 X190.303 Y156.842 E37.15999
G1 X190.995 Y157.743 E37.19719
G1 X191.433 Y158.8 E37.23465
G1 X191.566 Y159.92 E37.27158
G1 X191.554 Y172.803 E37.69337
G1 X191.431 Y173.742 E37.72438
G1 X190.995 Y174.797 E37.76175
G1 X190.303 Y175.698 E37.79895
G1 X189.402 Y176.39 E37.83614
G1 X188.345 Y176.828 E37.8736
G1 X187.225 Y176.961 E37.91053
G1 X142.592 Y176.949 E39.37184
G1 X141.653 Y176.826 E39.40284
G1 X140.598 Y176.39 E39.44022
G1 X139.697 Y175.698 E39.47741
G1 X139.005 Y174.797 E39.51461
G1 X138.567 Y173.74 E39.55207
G1 X138.434 Y172.62 E39.58899
G1 X138.446 Y159.737 E40.01079
G1 X138.569 Y158.798 E40.0418
G1 X139.005 Y157.743 E40.07917
G1 X139.697 Y156.842 E40.11637
G1 F2700 E39.61637
G0 F7200 X140.446 Y157.591
G1 F2700 E40.11637
G1 F3600 X141.129 Y157.067 E40.14455
G1 X141.923 Y156.738 E40.17269
G1 X142.775 Y156.629 E40.20081
G1 X187.272 Y156.633 E41.65766
G1 X188.077 Y156.738 E41.68424
G1 X188.871 Y157.067 E41.71238
G1 X189.554 Y157.591 E41.74057
G1 X190.078 Y158.274 E41.76875
G1 X190.407 Y159.068 E41.79689
G1 X190.516 Y159.92 E41.82501
G1 X190.512 Y172.667 E42.24236
G1 X190.407 Y173.472 E42.26893
G1 X190.078 Y174.266 E42.29707
G1 X189.554 Y174.949 E42.32526
G1 X188.871 Y175.473 E42.35344
G1 X188.077 Y175.802 E42.38158
G1 X187.225 Y175.911 E42.4097
G1 X142.728 Y175.907 E43.86656
G1 X141.923 Y175.802 E43.89314
G1 X141.129 Y175.473 E43.92127
G1 X140.446 Y174.949 E43.94946
G1 X139.922 Y174.266 E43.97764
G1 X139.593 Y173.472 E44.00578
G1 X139.484 Y172.62 E44.03391
G1 X139.488 Y159.873 E44.45125
G1 X139.593 Y159.068 E44.47783
G1 X139.922 Y158.274 E44.50597
G1 X140.446 Y157.591 E44.53415
G0 F7200 X140.071 Y157.216
G1 F3600 X140.862 Y156.609 E44.5668
G1 X141.789 Y156.225 E44.59965
G1 X142.775 Y156.104 E44.63217
G1 X187.34 Y156.112 E46.09125
G1 X188.212 Y156.226 E46.12004
G1 X189.138 Y156.609 E46.15285
G1 X189.929 Y157.216 E46.18549
G1 X190.536 Y158.007 E46.21814
G1 X190.92 Y158.934 E46.25099
G1 X191.041 Y159.92 E46.28351
G1 X191.033 Y172.735 E46.70308
G1 X190.919 Y173.607 E46.73188
G1 X190.536 Y174.533 E46.76468
G1 X189.929 Y175.324 E46.79733
G1 X189.138 Y175.931 E46.82997
G1 X188.211 Y176.315 E46.86282
G1 X187.225 Y176.436 E46.89535
G1 X142.66 Y176.428 E48.35443
G1 X141.788 Y176.314 E48.38322
G1 X140.862 Y175.931 E48.41603
G1 X140.071 Y175.324 E48.44867
G1 X139.464 Y174.533 E48.48132
G1 X139.08 Y173.606 E48.51417
G1 X138.959 Y172.62 E48.54669
G1 X138.967 Y159.805 E48.96626
G1 X139.081 Y158.933 E48.99505
G1 X139.464 Y158.007 E49.02786
G1 X140.071 Y157.216 E49.06051
G1 F2700 E48.56051
;MESH:dovetail.stl
G0 F7200 X139.299 Y158.988
G0 X139.205 Y159.708
G0 X139.181 Y166.082
G0 X140.632 Y166.082
;TYPE:WALL-INNER
G1 F2700 E49.06051
G1 F3606.9 X140.631 Y172.559 E49.27216
G1 F3600 X140.715 Y173.174 E49.29248
G1 X140.924 Y173.686 E49.31059
G1 X141.266 Y174.127 E49.32886
G1 X141.71 Y174.472 E49.34727
G1 X142.213 Y174.677 E49.36505
G1 X142.83 Y174.761 E49.38544
G1 X187.163 Y174.761 E50.83692
G1 X187.778 Y174.677 E50.85725
G1 X188.29 Y174.468 E50.87535
G1 X188.731 Y174.126 E50.89362
G1 X189.077 Y173.681 E50.91208
G1 X189.285 Y173.179 E50.92987
G1 X189.365 Y172.565 E50.95014
G1 X189.365 Y159.975 E51.36234
G1 X189.285 Y159.362 E51.38258
G1 X189.073 Y158.855 E51.40058
G1 X188.73 Y158.41 E51.41897
G1 X188.286 Y158.068 E51.43732
G1 X187.783 Y157.86 E51.45514
G1 X187.169 Y157.779 E51.47542
G1 X142.834 Y157.776 E52.92697
G1 X142.217 Y157.859 E52.94735
G1 X141.706 Y158.068 E52.96542
G1 X141.265 Y158.409 E52.98368
G1 X140.92 Y158.854 E53.00211
G1 X140.715 Y159.357 E53.0199
G1 X140.632 Y159.978 E53.04041
G1 F3606.9 X140.632 Y166.082 E53.23987
G1 F2700 E52.73987
G0 F7200 X146.831 Y166.13
G1 F2700 E53.23987
G1 F3606.9 X146.933 Y165.123 E53.27295
G1 F3600 X147.28 Y164.046 E53.31
G1 X147.853 Y163.049 E53.34765
G1 X148.626 Y162.191 E53.38546
G1 X149.536 Y161.528 E53.42232
G1 X150.593 Y161.051 E53.46029
G1 X151.725 Y160.809 E53.49819
G1 X152.881 Y160.813 E53.53603
G1 X153.983 Y161.046 E53.57291
G1 X155.035 Y161.509 E53.61054
G1 X155.97 Y162.192 E53.64845
G1 X156.727 Y163.027 E53.68535
G1 X157.308 Y164.021 E53.72305
G1 X157.663 Y165.126 E53.76105
G1 X157.788 Y166.271 E53.79876
G1 X157.663 Y167.408 E53.83621
G1 X157.322 Y168.485 E53.8732
G1 X156.74 Y169.49 E53.91122
G1 X155.969 Y170.35 E53.94903
G1 X155.059 Y171.007 E53.98578
G1 X154.006 Y171.485 E54.02364
G1 X152.877 Y171.727 E54.06145
G1 X151.722 Y171.727 E54.09926
G1 X150.613 Y171.494 E54.13636
G1 X149.561 Y171.027 E54.17405
G1 X148.626 Y170.349 E54.21186
G1 X147.869 Y169.512 E54.24881
G1 X147.293 Y168.516 E54.28648
G1 X146.932 Y167.422 E54.3242
G1 X146.817 Y166.268 E54.36217
G1 F3606.9 X146.831 Y166.13 E54.3667
G1 F2700 E53.8667
G0 F7200 X172.212 Y166.264
G1 F2700 E54.3667
G1 F3600 X172.337 Y165.128 E54.40412
G1 X172.678 Y164.049 E54.44117
G1 X173.255 Y163.046 E54.47905
G1 X174.026 Y162.191 E54.51675
G1 X174.936 Y161.528 E54.55361
G1 X175.993 Y161.051 E54.59158
G1 X177.125 Y160.809 E54.62948
G1 X178.281 Y160.813 E54.66732
G1 X179.381 Y161.045 E54.70413
G1 X180.437 Y161.51 E54.74191
G1 X181.37 Y162.192 E54.77975
G1 X182.127 Y163.027 E54.81665
G1 X182.707 Y164.02 E54.8543
G1 X183.067 Y165.121 E54.89222
G1 X183.183 Y166.268 E54.92997
G1 X183.064 Y167.419 E54.96785
G1 X182.722 Y168.486 E55.00454
G1 X182.14 Y169.49 E55.04253
G1 X181.369 Y170.35 E55.08035
G1 X180.459 Y171.007 E55.1171
G1 X179.406 Y171.485 E55.15496
G1 X178.277 Y171.727 E55.19276
G1 X177.122 Y171.727 E55.23058
G1 X176.013 Y171.494 E55.26768
G1 X174.961 Y171.027 E55.30536
G1 X174.026 Y170.349 E55.34317
G1 X173.269 Y169.512 E55.38012
G1 X172.692 Y168.514 E55.41787
G1 X172.333 Y167.409 E55.45591
G1 X172.212 Y166.264 E55.4936
G0 F7200 X172.742 Y166.267
;TYPE:WALL-OUTER
G1 F3600 X172.851 Y165.234 E55.52761
G1 X173.176 Y164.237 E55.56194
G1 X173.701 Y163.336 E55.59609
G1 X174.401 Y162.568 E55.63011
G1 X175.228 Y161.973 E55.66346
G1 X176.184 Y161.547 E55.69773
G1 X177.162 Y161.337 E55.73048
G1 X178.247 Y161.343 E55.76601
G1 X179.195 Y161.543 E55.79773
G1 X180.195 Y161.984 E55.83351
G1 X181.035 Y162.604 E55.86769
G1 X181.715 Y163.363 E55.90106
G1 X182.234 Y164.262 E55.93504
G1 X182.553 Y165.26 E55.96935
G1 X182.658 Y166.268 E56.00253
G1 X182.551 Y167.294 E56.0363
G1 X182.246 Y168.249 E56.06912
G1 X181.696 Y169.199 E56.10506
G1 X180.994 Y169.973 E56.13927
G1 X180.214 Y170.537 E56.17079
G1 X179.216 Y170.989 E56.20666
G1 X178.238 Y171.199 E56.23941
G1 X177.154 Y171.197 E56.2749
G1 X176.149 Y170.98 E56.30856
G1 X175.202 Y170.553 E56.34257
G1 X174.361 Y169.936 E56.37672
G1 X173.713 Y169.22 E56.40834
G1 X173.167 Y168.275 E56.44407
G1 X172.847 Y167.302 E56.47761
G1 X172.742 Y166.267 E56.51167
G0 F7200 X172.762 Y166.069
G1 F2700 E56.01167
G0 F7200 X147.357 Y166.134
G1 F2700 E56.51167
G1 F3606.9 X147.458 Y165.207 E56.54214
G1 F3600 X147.776 Y164.237 E56.57556
G1 X148.301 Y163.336 E56.6097
G1 X149.001 Y162.568 E56.64373
G1 X149.828 Y161.973 E56.67708
G1 X150.784 Y161.547 E56.71135
G1 X151.762 Y161.337 E56.7441
G1 X152.847 Y161.343 E56.77962
G1 X153.795 Y161.543 E56.81134
G1 X154.795 Y161.984 E56.84713
G1 X155.635 Y162.604 E56.88131
G1 X156.315 Y163.363 E56.91467
G1 X156.834 Y164.262 E56.94866
G1 X157.149 Y165.234 E56.98211
G1 X157.258 Y166.267 E57.01612
G1 X157.149 Y167.302 E57.05019
G1 X156.846 Y168.249 E57.08275
G1 X156.296 Y169.199 E57.11869
G1 X155.594 Y169.973 E57.1529
G1 X154.814 Y170.537 E57.18441
G1 X153.816 Y170.989 E57.22028
G1 X152.838 Y171.199 E57.25303
G1 X151.754 Y171.197 E57.28852
G1 X150.749 Y170.98 E57.32219
G1 X149.849 Y170.58 E57.35443
G1 X148.961 Y169.936 E57.39035
G1 X148.313 Y169.22 E57.42196
G1 X147.767 Y168.275 E57.4577
G1 X147.445 Y167.294 E57.4915
G1 X147.342 Y166.268 E57.52526
G1 F3606.9 X147.357 Y166.134 E57.52967
G0 F7200 X147.378 Y165.936
G1 F2700 E57.02967
G0 F7200 X140.107 Y166.078
G1 F2700 E57.52967
G1 F3606.9 X140.106 Y172.594 E57.7426
G1 F3600 X140.204 Y173.311 E57.76629
G1 X140.466 Y173.951 E57.78893
G1 X140.891 Y174.501 E57.81169
G1 X141.445 Y174.93 E57.83463
G1 X142.077 Y175.188 E57.85698
G1 X142.794 Y175.286 E57.88067
G1 X187.198 Y175.286 E59.33448
G1 X187.915 Y175.188 E59.35817
G1 X188.555 Y174.926 E59.38082
G1 X189.105 Y174.501 E59.40357
G1 X189.535 Y173.947 E59.42653
G1 X189.796 Y173.315 E59.44892
G1 X189.89 Y172.599 E59.47256
G1 X189.89 Y159.941 E59.88699
G1 X189.796 Y159.225 E59.91064
G1 X189.531 Y158.589 E59.93319
G1 X189.105 Y158.035 E59.95607
G1 X188.551 Y157.609 E59.97895
G1 X187.919 Y157.348 E60.00134
G1 X187.203 Y157.254 E60.02499
G1 X142.798 Y157.251 E61.47882
G1 X142.081 Y157.348 E61.50251
G1 X141.441 Y157.609 E61.52514
G1 X140.891 Y158.035 E61.54792
G1 X140.461 Y158.589 E61.57088
G1 X140.204 Y159.221 E61.59322
G1 X140.107 Y159.942 E61.61704
G1 F3606.9 X140.107 Y166.078 E61.81755
G0 F7200 X140.107 Y166.278
G1 F2700 E61.31755
G0 F7200 X171.706 Y166.237
;TYPE:SKIN
